X:12
T:Trip to Skye
M:3/4
L:1/8
C:John Whelan
S:The Celts Rise Again, Track #6
R:Air/Waltz
Z: Wosika (original by Robin Beech)
K:BMin
| "Bmin"~F2B cd2 | ~F2B cd2 | "A"ceA Bce | "Bmin"dcB AFE |
F2B cd2 | F2B cd2 | "F#min"ceA Bce | "Bmin"d2 B2 B2||
 "Bmin"~f2 edcB | "A"ceA Bce | "G"d2 cedc | "Bmin"~d2 B2 B2 |
 "D"~f2 edcB | "A"ceA Bce | "G"d2 cedc | "Bmin"dcBA ~FE |
